libs/ui/packages/crypto-icons/src/svg/NAS.svg

<svg width="24" height="24" viewBox="0 0 24 24" fill="none">
<path fill-rule="evenodd" clip-rule="evenodd" d="M9.5475 13.9913L11.907 18.7778L13.119 15.198L9.54825 13.9913H9.5475ZM5.23275 11.9145L8.80575 13.1273L10.0192 9.54975L5.23275 11.9145ZM9.756 13.4325C9.81225 13.4625 9.8355 13.4805 9.86175 13.4895C11.0138 13.881 12.1643 14.2755 13.3193 14.6572C13.413 14.6872 13.5465 14.6617 13.6388 14.6168C14.9595 13.9725 16.2765 13.3207 17.5935 12.6705C17.9685 12.4852 18.342 12.2978 18.7507 12.0938C18.6607 12.0592 18.6143 12.0398 18.5655 12.0233C17.4502 11.6445 16.335 11.2635 15.216 10.8953C15.0978 10.8604 14.9711 10.8684 14.8583 10.9178C13.4543 11.6003 12.0555 12.294 10.656 12.9847C10.3643 13.1287 10.074 13.2743 9.756 13.4325ZM14.6302 10.3837C13.7828 8.66325 12.9458 6.96825 12.0878 5.2275L9.47775 12.9277L14.6302 10.3837ZM3.75 12.0015C4.5705 11.5958 5.3445 11.2103 6.12 10.8278C7.4385 10.1775 8.757 9.5265 10.0778 8.88075C10.1432 8.85207 10.2015 8.80942 10.2487 8.75577C10.2958 8.70213 10.3307 8.6388 10.3507 8.57025C10.8667 7.0305 11.3903 5.49375 11.9123 3.95625C11.9318 3.89925 11.955 3.84375 11.991 3.75C12.0435 3.852 12.0825 3.924 12.1185 3.99675C13.1273 6.04425 14.1345 8.09175 15.1515 10.1347C15.201 10.2337 15.3315 10.3162 15.4432 10.3545C16.9703 10.881 18.5002 11.3985 20.0295 11.9183C20.0872 11.9377 20.1443 11.9587 20.25 11.9963C20.109 12.0675 20.0048 12.1223 19.8997 12.174C17.9288 13.1468 15.9585 14.1218 13.9845 15.0878C13.8955 15.1268 13.8162 15.185 13.7522 15.2583C13.6883 15.3315 13.6414 15.418 13.6147 15.5115C13.1055 17.037 12.5835 18.558 12.0653 20.0805C12.051 20.1225 12.0337 20.163 12 20.25C11.8673 19.9837 11.7525 19.7565 11.64 19.5285C10.722 17.667 9.80325 15.8055 8.8905 13.941C8.85944 13.8685 8.81285 13.8038 8.75401 13.7513C8.69518 13.6988 8.62553 13.6599 8.55 13.6373C7.0185 13.125 5.49 12.6023 3.96075 12.0825C3.9045 12.063 3.84975 12.0398 3.75 12.0015Z" fill="#222222"/>
</svg>

<svg width="24" height="24" viewBox="0 0 24 24" fill="none"><path fill="#222" fill-rule="evenodd" d="m9.548 13.991 2.359 4.787 1.212-3.58zm-4.315-2.076 3.573 1.212 1.213-3.577zm4.523 1.518c.056.03.08.047.106.056 1.152.392 2.302.786 3.457 1.168.094.03.227.005.32-.04q1.98-.969 3.954-1.947c.375-.185.749-.372 1.158-.576-.09-.035-.137-.054-.186-.07-1.115-.38-2.23-.76-3.349-1.129a.52.52 0 0 0-.358.023c-1.404.682-2.802 1.376-4.202 2.067zm4.874-3.05c-.847-1.72-1.684-3.415-2.542-5.155l-2.61 7.7zm-10.88 1.62c.82-.406 1.595-.792 2.37-1.174q1.978-.977 3.958-1.947a.49.49 0 0 0 .273-.31c.516-1.54 1.04-3.077 1.561-4.615.02-.057.043-.112.079-.206.053.102.091.174.127.247 1.01 2.047 2.016 4.095 3.034 6.138.049.099.18.181.291.22 1.527.526 3.057 1.043 4.586 1.563l.221.078c-.141.072-.245.126-.35.178-1.971.973-3.941 1.948-5.915 2.914a.66.66 0 0 0-.37.424c-.51 1.525-1.031 3.046-1.55 4.569-.014.041-.031.082-.065.169-.133-.266-.248-.494-.36-.721q-1.379-2.792-2.75-5.588a.54.54 0 0 0-.34-.304c-1.532-.512-3.06-1.035-4.59-1.555-.055-.019-.11-.042-.21-.08" clip-rule="evenodd"/></svg>
